X: 134005
T: The JOLLY TINKER
Q: "Irish Reel."
R: Reel.
%R: reel
B: James Kerr "Merry Melodies" v.1 p.34 s.0 #5
Z: 2016 John Chambers <jc:trillian.mit.edu>
M: C
L: 1/8
K: Ador
(gf) |\
eAAf edBd | eAAf g2(fg) |\
eAAf edBd | dBGB d2(cd) |\
eAAf edBd | eAAf g2(fg) |\
abaf gfge | dBGB d2 |]
(cB) |\
AAB2 GGB2 | AAfg e2(dc) |\
AAB2 GGB2 | dBGB d2(cB) |\
AAB2 GGB2 | AAfg e2(dB) |\
AcBA GABc | dBGB d2 |]
(cd) |\
edef gagf | gagf gagf |\
edeg abag | abag abag |\
edef gagf | gagf gagf |\
edeg abag | abag a2 |]
(gf) |\
edef gedB | Agfg e2(dc) |\
Bgfg afge | dBGB d2(cB) |\
Agfa gedB | Agfg e2(fg) |\
agfa gfge | dBGB d2 |]

%%sep 1 1 500
%%sep 1 1 500

